X: 13229
T: Fisher's Wedding, The
R: reel
M: 4/4
K: Fmajor
A|:F2Ac dcAc|dFcF AGGA|F2Ac dcde|1 fgagf2fa:|2 fgagf2fe||
|:fc~c2dBAB|dfba gfed|cfag fdcA|1 BgcAF3e:|BgcAF3||

